Papirus/32x32/places/user-desktop.svg

<?xml version="1.0" encoding="UTF-8" standalone="no"?>
<svg xmlns="http://www.w3.org/2000/svg" height="32" viewBox="0 0 32 32" width="32" version="1.1">
 <path style="fill:#5294e2;fill-opacity:1" d="M 4.25 5 C 3.5575 5 3 5.5455563 3 6.2226562 L 3 8 L 3 25.777344 C 3 26.454444 3.5575 27 4.25 27 L 26.75 27 C 27.4425 27 28 26.454444 28 25.777344 L 28 8 L 28 6.2226562 C 28 5.5455562 27.442 5 26.75 5 L 4.25 5 z"/>
 <path d="m4.25 5c-0.6925 0-1.25 0.5451-1.25 1.2222v1.7778h25v-1.7778c0-0.6771-0.558-1.2222-1.25-1.2222z" style="fill:#000000;fill-opacity:1;opacity:0.65"/>
 <path d="m10.3 24c-0.7202 0-1.3 0.669-1.3 1.5v1.5h13v-1.5c0-0.831-0.58-1.5-1.3-1.5h-10.4z" style="fill:#000000;fill-opacity:1;opacity:0.65"/>
 <path opacity=".1" fill="#fff" d="m4.25 5c-0.6925 0-1.25 0.5456-1.25 1.2227v1c0-0.6771 0.5575-1.2227 1.25-1.2227h22.5c0.692 0 1.25 0.5456 1.25 1.2227v-1c0-0.6771-0.558-1.2227-1.25-1.2227h-22.5z"/>
 <path opacity=".2" d="m3 25.777v1c0 0.677 0.5575 1.223 1.25 1.223h22.5c0.692 0 1.25-0.546 1.25-1.223v-1c0 0.677-0.558 1.223-1.25 1.223h-22.5c-0.6925 0-1.25-0.546-1.25-1.223z"/>
</svg>

<?xml version="1.0" encoding="UTF-8" standalone="no"?>
<svg xmlns="http://www.w3.org/2000/svg" height="32" width="32" version="1.1">
 <rect ry="1.25" rx="1.25" y="6" x="3" height="22" width="25" style="opacity:0.2"/>
 <rect style="fill:#5294e2" width="25" height="22" x="3" y="5" rx="1.25" ry="1.25"/>
 <path style="opacity:0.65" d="M 4.25 5 C 3.5575 5 3 5.5575 3 6.25 L 3 8 L 28 8 L 28 6.25 C 28 5.5575 27.442 5 26.75 5 L 4.25 5 z"/>
 <path style="opacity:0.65" d="M 10.5 24 C 9.669 24 9 24.669 9 25.5 L 9 27 L 22 27 L 22 25.5 C 22 24.669 21.331 24 20.5 24 L 10.5 24 z"/>
 <path style="opacity:0.1;fill:#ffffff" d="M 4.25 5 C 3.5575 5 3 5.5575 3 6.25 L 3 7.25 C 3 6.5575 3.5575 6 4.25 6 L 26.75 6 C 27.442 6 28 6.5575 28 7.25 L 28 6.25 C 28 5.5575 27.442 5 26.75 5 L 4.25 5 z"/>
</svg>
